X:1
T:Les Rastsmen
M:2/4
L:1/8
K:F
 F| FG F2| CA, B,2| CF FG| F2 C2| A,B, CC| CC CC| DD C2| D D/2D/2 C2|\
 D D/2D/2 C2| F3/2 F/2 FC| DE F2| A F/2F/2 GE| D2 z||
